X:1
T:Ah! Les crododiles!
C:Unknown
L:1/4
Q:1/4=120
M:2/4
K:F
V:V1 clef=treble
V:V2 clef=bass
%
%
[V:V1] F F3/4 A/4 | c3/2 c/2 | B/2 A/2 B/2 c/2 | A G | G G3/4 G/4 | G3/2 G/2 |
%
%
[V:V1] A/2 G/2 A/2 =B/2 :||: c2 | C/2 A/2 A/2 A/2 | C/2 A/2 A/2 A/2 | C/2 A/2 A/2 A/2 |
%
%
[V:V1] B G | C/2 G/2 G/2 G/2 | C/2 G/2 G/2 G/2 | c/2 B/2 A/2 G/2 | A2 :|


